Numix-GalliumOS/32/status/appointment-soon.svg

<?xml version="1.0" encoding="UTF-8" standalone="no"?>
<svg
   xmlns:dc="http://purl.org/dc/elements/1.1/"
   xmlns:cc="http://creativecommons.org/ns#"
   xmlns:rdf="http://www.w3.org/1999/02/22-rdf-syntax-ns#"
   xmlns:svg="http://www.w3.org/2000/svg"
   xmlns="http://www.w3.org/2000/svg"
   xmlns:sodipodi="http://sodipodi.sourceforge.net/DTD/sodipodi-0.dtd"
   xmlns:inkscape="http://www.inkscape.org/namespaces/inkscape"
   width="32"
   height="32"
   viewBox="0 0 32 32"
   id="svg2"
   version="1.1"
   inkscape:version="0.91 r13725"
   sodipodi:docname="appointment-soon.svg">
  <metadata
     id="metadata14">
    <rdf:RDF>
      <cc:Work
         rdf:about="">
        <dc:format>image/svg+xml</dc:format>
        <dc:type
           rdf:resource="http://purl.org/dc/dcmitype/StillImage" />
        <dc:title />
      </cc:Work>
    </rdf:RDF>
  </metadata>
  <defs
     id="defs12" />
  <sodipodi:namedview
     pagecolor="#ffffff"
     bordercolor="#666666"
     borderopacity="1"
     objecttolerance="10"
     gridtolerance="10"
     guidetolerance="10"
     inkscape:pageopacity="0"
     inkscape:pageshadow="2"
     inkscape:window-width="1366"
     inkscape:window-height="704"
     id="namedview10"
     showgrid="false"
     inkscape:zoom="1"
     inkscape:cx="3.2772051"
     inkscape:cy="14.818335"
     inkscape:window-x="0"
     inkscape:window-y="27"
     inkscape:window-maximized="1"
     inkscape:current-layer="svg2">
    <inkscape:grid
       type="xygrid"
       id="grid4142" />
  </sodipodi:namedview>
  <path
     style="fill:#ffffff;fill-rule:evenodd"
     d="M 30,16 C 30,23.731446 23.731446,30 16,30 8.2685542,30 2,23.731446 2,16 2,8.268554 8.2685542,2 16,2 23.731446,2 30,8.268554 30,16 Z"
     id="path4"
     inkscape:connector-curvature="0" />
  <path
     style="fill:#268bd2"
     d="M 15.976562 5.574219 C 15.09375 5.585938 14.386719 6.320312 14.398438 7.199219 L 14.398438 16 C 14.398438 16.375 14.53125 16.738281 14.773438 17.023438 L 18.773438 21.824219 C 19.132812 22.304688 19.71875 22.542969 20.304688 22.457031 C 20.894531 22.363281 21.382812 21.957031 21.574219 21.394531 C 21.769531 20.832031 21.632812 20.207031 21.226562 19.773438 L 17.601562 15.425781 L 17.601562 7.199219 C 17.605469 6.769531 17.4375 6.351562 17.132812 6.042969 C 16.824219 5.738281 16.40625 5.570312 15.976562 5.574219 Z "
     id="path6" />
  <path
     style="fill:#aaa"
     d="M 16 0 C 7.179688 0 0 7.179688 0 16 C 0 24.820312 7.179688 32 16 32 C 24.820312 32 32 24.820312 32 16 C 32 7.179688 24.820312 0 16 0 Z M 16 3.199219 C 23.085938 3.199219 28.800781 8.914062 28.800781 16 C 28.800781 23.085938 23.085938 28.800781 16 28.800781 C 8.914062 28.800781 3.199219 23.085938 3.199219 16 C 3.199219 8.914062 8.914062 3.199219 16 3.199219 Z "
     id="path8" />
  <path
     inkscape:connector-curvature="0"
     style="fill:#dc322f;fill-opacity:1;fill-rule:evenodd"
     d="M 14,25 A 7,7 0 0 1 0,25 7,7 0 1 1 14,25 Z"
     id="path4191" />
  <g
     id="g4331"
     transform="matrix(-1,0,0,-1,32,32.500005)">
    <g
       id="g4193"
       transform="matrix(0.5,0,0,1,19,-6)"
       style="line-height:125%;letter-spacing:0;word-spacing:0">
      <path
         id="path4195"
         d="m 14,17.500005 -4,0 0,-5 4,0 0,5"
         style="fill:#ffffff;fill-opacity:0.9"
         inkscape:connector-curvature="0"
         sodipodi:nodetypes="ccccc" />
    </g>
    <g
       id="g4197"
       transform="matrix(0.49999884,0,0,0.49999884,18.999996,2.4968895e-5)"
       style="fill-rule:evenodd">
      <path
         id="path4199"
         d="m 14.000041,8.9999716 c 0,1.1045674 -0.895433,1.9999954 -2.000004,1.9999954 -1.104573,0 -2.000005,-0.895428 -2.000005,-1.9999954 0,-1.1045669 0.895432,-1.9999953 2.000005,-1.9999953 1.104571,0 2.000004,0.8954284 2.000004,1.9999953 z"
         style="fill:#ffffff;fill-opacity:0.9"
         inkscape:connector-curvature="0" />
    </g>
  </g>
</svg>

<svg xmlns="http://www.w3.org/2000/svg" viewBox="0 0 32 32">
 <path d="m 30 16 c 0 7.731 -6.269 14 -14 14 -7.731 0 -14 -6.269 -14 -14 0 -7.731 6.269 -14 14 -14 7.731 0 14 6.269 14 14" style="fill:#fff;fill-rule:evenodd"/>
 <path d="m 15.977 5.574 c -0.883 0.012 -1.59 0.746 -1.578 1.625 l 0 8.801 c 0 0.375 0.133 0.738 0.375 1.023 l 4 4.801 c 0.359 0.48 0.945 0.719 1.531 0.633 c 0.59 -0.094 1.078 -0.5 1.27 -1.063 c 0.195 -0.563 0.059 -1.188 -0.348 -1.621 l -3.625 -4.348 l 0 -8.227 c 0.004 -0.43 -0.164 -0.848 -0.469 -1.156 c -0.309 -0.305 -0.727 -0.473 -1.156 -0.469 Z" style="fill:#268bd2"/>
 <path d="m 16 0 c -8.82 0 -16 7.18 -16 16 c 0 8.82 7.18 16 16 16 c 8.82 0 16 -7.18 16 -16 c 0 -8.82 -7.18 -16 -16 -16 m 0 3.199 c 7.086 0 12.801 5.715 12.801 12.801 c 0 7.086 -5.715 12.801 -12.801 12.801 c -7.086 0 -12.801 -5.715 -12.801 -12.801 c 0 -7.086 5.715 -12.801 12.801 -12.801 Z" style="fill:#aaa"/>
 <path d="M 14 25 A 7 7 0 0 1 0 25 7 7 0 1 1 14 25" style="fill:#dc322f;fill-opacity:1;fill-rule:evenodd"/>
 <g transform="matrix(-1,0,0,-1,32,32.500005)">
  <g transform="matrix(0.5,0,0,1,19,-6)">
   <path d="m 14 17.5 -4 0 0 -5 4 0 0 5" style="fill:#fff;fill-opacity:0.9"/>
  </g>
  <g transform="matrix(0.49999884,0,0,0.49999884,18.999996,2.4968895e-5)" style="fill-rule:evenodd">
   <path d="m 14 9 c 0 1.105 -0.895 2 -2 2 -1.105 0 -2 -0.895 -2 -2 0 -1.105 0.895 -2 2 -2 1.105 0 2 0.895 2 2 z" style="fill:#fff;fill-opacity:0.9"/>
  </g>
 </g>
</svg>
